brandFactory_export/2.Regular/Documento_Archivo MP3_2Regular.svg

<?xml version="1.0" encoding="UTF-8"?>
<svg width="24px" height="24px" viewBox="0 0 24 24" version="1.1" xmlns="http://www.w3.org/2000/svg" xmlns:xlink="http://www.w3.org/1999/xlink">
    <title>2.Regular/Documento_Archivo MP3_2Regular</title>
    <g id="Symbols" stroke="none" stroke-width="1" fill="none" fill-rule="evenodd">
        <g id="2.Regular/Documento_Archivo-MP3_2Regular" fill="#5CB615" fill-rule="nonzero">
            <path d="M16.2117647,0.0302521008 C16.487395,0.0302521008 16.7596639,0.141176471 16.9546218,0.332773109 L23.3042017,6.48067227 C23.4386555,6.61176471 23.5159664,6.77310924 23.5663866,6.94453782 C23.6033613,7.03193277 23.6235294,7.12941176 23.6235294,7.2302521 L23.6235294,21.9966387 C23.6235294,22.897479 22.8504202,23.6571429 21.9327731,23.6571429 L7.31428571,23.6571429 C6.41344538,23.6571429 5.62689076,22.8806723 5.62689076,21.9966387 L5.66722689,18.6689076 L2.90756302,18.6689076 C1.30756302,18.6689076 0.00336134409,17.3613445 0.00336134409,15.7579832 L0.00336134409,10.8470588 C0.00336134409,9.24369748 1.30756302,7.93613445 2.90756302,7.93613445 L5.62689076,7.93613445 L5.62689076,1.6907563 C5.62689076,0.820168067 6.4302521,0.0302521008 7.31428571,0.0302521008 L16.2117647,0.0302521008 Z M15.1529412,1.49243697 L7.31092437,1.49243697 C7.22352941,1.49243697 7.08571429,1.62352941 7.0789916,1.69411765 L7.0789916,7.93613445 L14.7159664,7.93613445 C16.3193277,7.93613445 17.6201681,9.24369748 17.6201681,10.8470588 L17.6201681,15.7579832 C17.6201681,17.3613445 16.3159664,18.6689076 14.7159664,18.6689076 L7.11932773,18.6689076 L7.0789916,22.0033613 C7.0789916,22.0638655 7.2,22.194958 7.31092437,22.194958 L21.9327731,22.194958 L21.9327731,22.1983193 C22.0504202,22.1983193 22.1647059,22.0840336 22.1647059,21.9966387 L22.1647059,8.27563025 L19.3882353,8.27563025 C18.1714286,8.27563025 17.1193277,7.8789916 16.3462185,7.13277311 C15.5663866,6.37647059 15.1529412,5.34789916 15.1529412,4.15462185 L15.1529412,1.49243697 Z M14.7193277,9.39831933 L2.90420168,9.39831933 C2.10420168,9.39831933 1.45546218,10.0504202 1.45546218,10.8504202 L1.45546218,15.7613445 C1.45546218,16.5613445 2.10420168,17.2134454 2.90420168,17.2134454 L14.7193277,17.2134454 C15.5193277,17.2134454 16.1680672,16.5613445 16.1680672,15.7613445 L16.1680672,10.8504202 C16.1680672,10.0504202 15.5193277,9.39831933 14.7193277,9.39831933 Z M13.2705882,11.0890756 C13.8285714,11.0890756 14.302521,11.2201681 14.5747899,11.492437 C14.7630252,11.6806723 14.8806723,11.9394958 14.8806723,12.3092437 C14.8806723,12.7697479 14.6789916,13.092437 14.292437,13.287395 C14.7596639,13.4554622 15.0386555,13.805042 15.0386555,14.3831933 C15.0386555,14.7260504 14.9344538,15.0252101 14.7260504,15.2403361 C14.4336134,15.5462185 13.9596639,15.7008403 13.287395,15.7008403 C12.9008403,15.697479 12.5109244,15.6571429 12.2151261,15.5932773 L12.2151261,14.8941176 C12.4739496,14.9411765 12.7798319,14.9714286 13.102521,14.9714286 C13.4655462,14.9714286 13.6806723,14.9243697 13.8352941,14.8235294 C13.989916,14.7193277 14.0739496,14.5512605 14.0739496,14.312605 C14.0739496,14.0806723 13.989916,13.9226891 13.8521008,13.8252101 C13.6907563,13.707563 13.4420168,13.6705882 12.9882353,13.6705882 L12.8638655,13.6705882 L12.8638655,13.0218487 L13.0184874,13.0218487 C13.4252101,13.0218487 13.6336134,12.9714286 13.7915966,12.8336134 C13.8957983,12.7428571 13.9663866,12.594958 13.9663866,12.3798319 C13.9663866,12.2117647 13.9193277,12.0672269 13.8184874,11.9764706 C13.687395,11.8588235 13.4689076,11.8084034 13.1193277,11.8084034 C12.8336134,11.8084034 12.5109244,11.8352941 12.2521008,11.8722689 L12.2521008,11.1865546 C12.5512605,11.1226891 12.9277311,11.0890756 13.2705882,11.0890756 Z M3.51932773,11.1731092 L4.9210084,13.6504202 L6.36638655,11.1731092 L7.14285714,11.1731092 L7.14285714,15.6067227 L6.21848739,15.6067227 L6.21848739,13.0521008 L5.29747899,14.594958 L4.5210084,14.594958 L3.57310924,13.0252101 L3.57310924,15.6067227 L2.72268908,15.6067227 L2.72268908,11.1731092 L3.51932773,11.1731092 Z M9.6302521,11.1731092 C10.3226891,11.1731092 10.7630252,11.2705882 11.0487395,11.5361345 C11.287395,11.7579832 11.405042,12.1008403 11.405042,12.5747899 C11.405042,13.0487395 11.2941176,13.405042 11.0756303,13.6504202 C10.8168067,13.9428571 10.4134454,14.0773109 9.83193277,14.0773109 L9.11932773,14.0773109 L9.11932773,15.6067227 L8.10756302,15.6067227 L8.10756302,11.1731092 L9.6302521,11.1731092 Z M9.59327731,11.9058824 L9.11932773,11.9058824 L9.11932773,13.3210084 L9.62016807,13.3210084 L9.62016807,13.3176471 C9.94285714,13.3176471 10.0806723,13.2705882 10.2084034,13.1495798 C10.3260504,13.0319328 10.3831933,12.8436975 10.3831933,12.5848739 C10.3831933,12.3462185 10.3327731,12.1714286 10.2151261,12.0605042 C10.0907563,11.9495798 9.90252101,11.9058824 9.59327731,11.9058824 Z M16.615126,2.03697479 L16.615126,4.15462185 C16.615126,4.94453782 16.8739496,5.61008403 17.3613445,6.08403361 C17.8588235,6.56470588 18.5579832,6.81680672 19.3915966,6.81680672 L21.5529412,6.81680672 L16.615126,2.03697479 Z" id="Documento_Archivo-MP3_2Regular"></path>
        </g>
    </g>
</svg>

<svg width="24" height="24" viewBox="0 0 24 24" xmlns="http://www.w3.org/2000/svg"><path d="M16.212.03c.275 0 .548.111.743.303l6.35 6.148c.134.13.211.292.261.464a.735.735 0 01.058.285v14.767c0 .9-.774 1.66-1.691 1.66H7.314c-.9 0-1.687-.776-1.687-1.66l.04-3.328h-2.76a2.913 2.913 0 01-2.904-2.911v-4.91a2.913 2.913 0 012.905-2.912h2.719V1.691c0-.87.803-1.66 1.687-1.66h8.898zm-1.06 1.462H7.312c-.087 0-.225.132-.232.202v6.242h7.637a2.91 2.91 0 012.904 2.911v4.911a2.913 2.913 0 01-2.904 2.91H7.119l-.04 3.335c0 .06.121.192.232.192h14.622v.003c.117 0 .232-.114.232-.201V8.276h-2.777c-1.217 0-2.269-.397-3.042-1.143-.78-.757-1.193-1.785-1.193-2.978V1.492zm-.433 7.906H2.904c-.8 0-1.449.652-1.449 1.452v4.911c0 .8.65 1.452 1.45 1.452h11.814c.8 0 1.45-.652 1.45-1.452v-4.91c0-.8-.65-1.453-1.45-1.453zm-1.448 1.691c.558 0 1.032.131 1.304.403.188.189.306.447.306.817 0 .46-.202.783-.589.978.468.168.747.518.747 1.096 0 .343-.105.642-.313.857-.292.306-.766.46-1.439.46a5.583 5.583 0 01-1.072-.107v-.699c.259.047.565.077.888.077.363 0 .578-.047.732-.147.155-.105.239-.273.239-.511 0-.232-.084-.39-.222-.488-.161-.117-.41-.154-.864-.154h-.124v-.65h.154c.407 0 .616-.05.774-.187.104-.091.174-.239.174-.454 0-.168-.047-.313-.148-.404-.13-.117-.35-.168-.699-.168-.285 0-.608.027-.867.064v-.685a5.16 5.16 0 011.019-.098zm-9.752.084l1.402 2.477 1.445-2.477h.777v4.434h-.925v-2.555l-.92 1.543H4.52l-.948-1.57v2.582h-.85v-4.434h.796zm6.111 0c.693 0 1.133.098 1.419.363.238.222.356.565.356 1.039s-.11.83-.33 1.075c-.258.293-.662.427-1.243.427h-.713v1.53H8.108v-4.434H9.63zm-.037.733H9.12v1.415h.501v-.003c.323 0 .46-.047.588-.168.118-.118.175-.306.175-.565 0-.239-.05-.414-.168-.524-.124-.111-.312-.155-.622-.155zm7.022-9.869v2.118c0 .79.259 1.455.746 1.929.498.48 1.197.733 2.03.733h2.162l-4.938-4.78z" fill="#5CB615" fill-rule="nonzero"/></svg>
